X: 12891
T: Fetlars Topp
R: jig
M: 6/8
K: Emixolydian
~E3 EGA|Bed cBA|cAe aeb|aed cBA|
E3 EGA|Bed cBA|cAd ecA|1 B3 BGF:|2 B3 B2B||
|:efg gea|gec Bed|cea aeb|aed cBA|
B2e gea|~g3 efg|a2f gag|1 fec Bcd:|2 fec BGF||

